app/assets/images/icons/active/s-bahn.svg

<?xml version="1.0" encoding="UTF-8" standalone="no"?>
<svg width="32px" height="232px" viewBox="0 0 32 232" version="1.1" xmlns="http://www.w3.org/2000/svg" xmlns:xlink="http://www.w3.org/1999/xlink" xmlns:sketch="http://www.bohemiancoding.com/sketch/ns">
    <title>s-bahn</title>
    <description>Created with Sketch (http://www.bohemiancoding.com/sketch)</description>
    <defs></defs>
    <g id="Transport" stroke="none" stroke-width="1" fill="none" fill-rule="evenodd" sketch:type="MSPage">
        <path d="M23.3477585,146.274116 C22.4877585,147.077116 21.4357585,147.735116 20.1927585,148.239116 C18.9457585,148.744116 17.5407585,149.000116 15.9687585,149.000116 C15.0897585,149.000116 14.1927585,148.909116 13.2797585,148.731116 C12.3517585,148.547116 11.4597585,148.293116 10.6017585,147.967116 C9.74375848,147.641116 8.93175848,147.266116 8.17575848,146.832116 C7.41975848,146.403116 6.76775848,145.938116 6.20875848,145.440116 L6.20875848,140.446116 C8.09275848,143.160116 11.1567585,145.123116 14.4177585,145.670116 C15.9687585,145.936116 17.6777585,145.848116 19.0077585,144.926116 C20.1877585,144.108116 20.5687585,142.619116 19.6627585,141.440116 C18.5917585,140.031116 16.3277585,139.559116 14.7047585,139.151116 C12.8737585,138.695116 11.0077585,138.295116 9.35375848,137.327116 C6.35375848,135.565116 5.13475848,131.932116 6.65475848,128.744116 C8.01575848,125.883116 11.1707585,124.340116 14.2047585,124.055116 C17.8457585,123.717116 21.5977585,124.955116 24.4727585,127.180116 L24.4727585,131.344116 C22.4027585,129.131116 19.6737585,127.420116 16.6387585,126.977116 C15.3667585,126.793116 13.8577585,126.711116 12.7297585,127.430116 C11.5777585,128.153116 11.2137585,129.637116 11.8887585,130.820116 C12.6017585,132.071116 14.3107585,132.561116 15.6087585,132.904116 C17.2067585,133.336116 18.8577585,133.606116 20.4427585,134.098116 C21.9377585,134.559116 23.3807585,135.285116 24.4807585,136.424116 C25.5957585,137.588116 25.9887585,139.088116 25.9887585,140.676116 C25.9887585,141.627116 25.7627585,142.608116 25.3157585,143.588116 C24.8647585,144.573116 24.2087585,145.471116 23.3477585,146.274116 Z M23.3477585,146.274116" id="s-bahn--white" fill="#206FAC" sketch:type="MSShapeGroup"></path>
        <path d="M23.3477585,106.274116 C22.4877585,107.077116 21.4357585,107.735116 20.1927585,108.239116 C18.9457585,108.744116 17.5407585,109.000116 15.9687585,109.000116 C15.0897585,109.000116 14.1927585,108.909116 13.2797585,108.731116 C12.3517585,108.547116 11.4597585,108.293116 10.6017585,107.967116 C9.74375848,107.641116 8.93175848,107.266116 8.17575848,106.832116 C7.41975848,106.403116 6.76775848,105.938116 6.20875848,105.440116 L6.20875848,100.446116 C8.09275848,103.160116 11.1567585,105.123116 14.4177585,105.670116 C15.9687585,105.936116 17.6777585,105.848116 19.0077585,104.926116 C20.1877585,104.108116 20.5687585,102.619116 19.6627585,101.440116 C18.5917585,100.031116 16.3277585,99.5591164 14.7047585,99.1511164 C12.8737585,98.6951164 11.0077585,98.2951164 9.35375848,97.3271164 C6.35375848,95.5651164 5.13475848,91.9321164 6.65475848,88.7441164 C8.01575848,85.8831164 11.1707585,84.3401164 14.2047585,84.0551164 C17.8457585,83.7171164 21.5977585,84.9551164 24.4727585,87.1801164 L24.4727585,91.3441164 C22.4027585,89.1311164 19.6737585,87.4201164 16.6387585,86.9771164 C15.3667585,86.7931164 13.8577585,86.7111164 12.7297585,87.4301164 C11.5777585,88.1531164 11.2137585,89.6371164 11.8887585,90.8201164 C12.6017585,92.0711164 14.3107585,92.5611164 15.6087585,92.9041164 C17.2067585,93.3361164 18.8577585,93.6061164 20.4427585,94.0981164 C21.9377585,94.5591164 23.3807585,95.2851164 24.4807585,96.4241164 C25.5957585,97.5881164 25.9887585,99.0881164 25.9887585,100.676116 C25.9887585,101.627116 25.7627585,102.608116 25.3157585,103.588116 C24.8647585,104.573116 24.2087585,105.471116 23.3477585,106.274116 Z M23.3477585,106.274116" id="s-bahn--subdued-grey" fill="#FFFFFF" sketch:type="MSShapeGroup"></path>
        <path d="M23.3477585,66.2741164 C22.4877585,67.0771164 21.4357585,67.7351164 20.1927585,68.2391164 C18.9457585,68.7441164 17.5407585,69.0001164 15.9687585,69.0001164 C15.0897585,69.0001164 14.1927585,68.9091164 13.2797585,68.7311164 C12.3517585,68.5471164 11.4597585,68.2931164 10.6017585,67.9671164 C9.74375848,67.6411164 8.93175848,67.2661164 8.17575848,66.8321164 C7.41975848,66.4031164 6.76775848,65.9381164 6.20875848,65.4401164 L6.20875848,60.4461164 C8.09275848,63.1601164 11.1567585,65.1231164 14.4177585,65.6701164 C15.9687585,65.9361164 17.6777585,65.8481164 19.0077585,64.9261164 C20.1877585,64.1081164 20.5687585,62.6191164 19.6627585,61.4401164 C18.5917585,60.0311164 16.3277585,59.5591164 14.7047585,59.1511164 C12.8737585,58.6951164 11.0077585,58.2951164 9.35375848,57.3271164 C6.35375848,55.5651164 5.13475848,51.9321164 6.65475848,48.7441164 C8.01575848,45.8831164 11.1707585,44.3401164 14.2047585,44.0551164 C17.8457585,43.7171164 21.5977585,44.9551164 24.4727585,47.1801164 L24.4727585,51.3441164 C22.4027585,49.1311164 19.6737585,47.4201164 16.6387585,46.9771164 C15.3667585,46.7931164 13.8577585,46.7111164 12.7297585,47.4301164 C11.5777585,48.1531164 11.2137585,49.6371164 11.8887585,50.8201164 C12.6017585,52.0711164 14.3107585,52.5611164 15.6087585,52.9041164 C17.2067585,53.3361164 18.8577585,53.6061164 20.4427585,54.0981164 C21.9377585,54.5591164 23.3807585,55.2851164 24.4807585,56.4241164 C25.5957585,57.5881164 25.9887585,59.0881164 25.9887585,60.6761164 C25.9887585,61.6271164 25.7627585,62.6081164 25.3157585,63.5881164 C24.8647585,64.5731164 24.2087585,65.4711164 23.3477585,66.2741164 Z M23.3477585,66.2741164" id="s-bahn--body-grey" fill="#67737B" sketch:type="MSShapeGroup"></path>
        <path d="M23.3477585,26.2741164 C22.4877585,27.0771164 21.4357585,27.7351164 20.1927585,28.2391164 C18.9457585,28.7441164 17.5407585,29.0001164 15.9687585,29.0001164 C15.0897585,29.0001164 14.1927585,28.9091164 13.2797585,28.7311164 C12.3517585,28.5471164 11.4597585,28.2931164 10.6017585,27.9671164 C9.74375848,27.6411164 8.93175848,27.2661164 8.17575848,26.8321164 C7.41975848,26.4031164 6.76775848,25.9381164 6.20875848,25.4401164 L6.20875848,20.4461164 C8.09275848,23.1601164 11.1567585,25.1231164 14.4177585,25.6701164 C15.9687585,25.9361164 17.6777585,25.8481164 19.0077585,24.9261164 C20.1877585,24.1081164 20.5687585,22.6191164 19.6627585,21.4401164 C18.5917585,20.0311164 16.3277585,19.5591164 14.7047585,19.1511164 C12.8737585,18.6951164 11.0077585,18.2951164 9.35375848,17.3271164 C6.35375848,15.5651164 5.13475848,11.9321164 6.65475848,8.74411642 C8.01575848,5.88311642 11.1707585,4.34011642 14.2047585,4.05511642 C17.8457585,3.71711642 21.5977585,4.95511642 24.4727585,7.18011642 L24.4727585,11.3441164 C22.4027585,9.13111642 19.6737585,7.42011642 16.6387585,6.97711642 C15.3667585,6.79311642 13.8577585,6.71111642 12.7297585,7.43011642 C11.5777585,8.15311642 11.2137585,9.63711642 11.8887585,10.8201164 C12.6017585,12.0711164 14.3107585,12.5611164 15.6087585,12.9041164 C17.2067585,13.3361164 18.8577585,13.6061164 20.4427585,14.0981164 C21.9377585,14.5591164 23.3807585,15.2851164 24.4807585,16.4241164 C25.5957585,17.5881164 25.9887585,19.0881164 25.9887585,20.6761164 C25.9887585,21.6271164 25.7627585,22.6081164 25.3157585,23.5881164 C24.8647585,24.5731164 24.2087585,25.4711164 23.3477585,26.2741164 Z M23.3477585,26.2741164" id="s-bahn--title-grey" fill="#3A434E" sketch:type="MSShapeGroup"></path>
    </g>
</svg>

<svg width="32" height="232" viewBox="0 0 32 232" xmlns="http://www.w3.org/2000/svg" xmlns:sketch="http://www.bohemiancoding.com/sketch/ns"><title>s-bahn</title><g sketch:type="MSPage" fill="none"><path d="M23.348 146.274c-.86.803-1.912 1.461-3.155 1.965-1.247.505-2.652.761-4.224.761-.879 0-1.776-.091-2.689-.269-.928-.184-1.82-.438-2.678-.764-.858-.326-1.67-.701-2.426-1.135-.756-.429-1.408-.894-1.967-1.392v-4.994c1.884 2.714 4.948 4.677 8.209 5.224 1.551.266 3.26.178 4.59-.744 1.18-.818 1.561-2.307.655-3.486-1.071-1.409-3.335-1.881-4.958-2.289-1.831-.456-3.697-.856-5.351-1.824-3-1.762-4.219-5.395-2.699-8.583 1.361-2.861 4.516-4.404 7.55-4.689 3.641-.338 7.393.9 10.268 3.125v4.164c-2.07-2.213-4.799-3.924-7.834-4.367-1.272-.184-2.781-.266-3.909.453-1.152.723-1.516 2.207-.841 3.39.713 1.251 2.422 1.741 3.72 2.084 1.598.432 3.249.702 4.834 1.194 1.495.461 2.938 1.187 4.038 2.326 1.115 1.164 1.508 2.664 1.508 4.252 0 .951-.226 1.932-.673 2.912-.451.985-1.107 1.883-1.968 2.686zm0 0" fill="#206FAC" sketch:type="MSShapeGroup"/><path d="M23.348 106.274c-.86.803-1.912 1.461-3.155 1.965-1.247.505-2.652.761-4.224.761-.879 0-1.776-.091-2.689-.269-.928-.184-1.82-.438-2.678-.764-.858-.326-1.67-.701-2.426-1.135-.756-.429-1.408-.894-1.967-1.392v-4.994c1.884 2.714 4.948 4.677 8.209 5.224 1.551.266 3.26.178 4.59-.744 1.18-.818 1.561-2.307.655-3.486-1.071-1.409-3.335-1.881-4.958-2.289-1.831-.456-3.697-.856-5.351-1.824-3-1.762-4.219-5.395-2.699-8.583 1.361-2.861 4.516-4.404 7.55-4.689 3.641-.338 7.393.9 10.268 3.125v4.164c-2.07-2.213-4.799-3.924-7.834-4.367-1.272-.184-2.781-.266-3.909.453-1.152.723-1.516 2.207-.841 3.39.713 1.251 2.422 1.741 3.72 2.084 1.598.432 3.249.702 4.834 1.194 1.495.461 2.938 1.187 4.038 2.326 1.115 1.164 1.508 2.664 1.508 4.252 0 .951-.226 1.932-.673 2.912-.451.985-1.107 1.883-1.968 2.686zm0 0" fill="#fff" sketch:type="MSShapeGroup"/><path d="M23.348 66.274c-.86.803-1.912 1.461-3.155 1.965-1.247.505-2.652.761-4.224.761-.879 0-1.776-.091-2.689-.269-.928-.184-1.82-.438-2.678-.764-.858-.326-1.67-.701-2.426-1.135-.756-.429-1.408-.894-1.967-1.392v-4.994c1.884 2.714 4.948 4.677 8.209 5.224 1.551.266 3.26.178 4.59-.744 1.18-.818 1.561-2.307.655-3.486-1.071-1.409-3.335-1.881-4.958-2.289-1.831-.456-3.697-.856-5.351-1.824-3-1.762-4.219-5.395-2.699-8.583 1.361-2.861 4.516-4.404 7.55-4.689 3.641-.338 7.393.9 10.268 3.125v4.164c-2.07-2.213-4.799-3.924-7.834-4.367-1.272-.184-2.781-.266-3.909.453-1.152.723-1.516 2.207-.841 3.39.713 1.251 2.422 1.741 3.72 2.084 1.598.432 3.249.702 4.834 1.194 1.495.461 2.938 1.187 4.038 2.326 1.115 1.164 1.508 2.664 1.508 4.252 0 .951-.226 1.932-.673 2.912-.451.985-1.107 1.883-1.968 2.686zm0 0" fill="#67737B" sketch:type="MSShapeGroup"/><path d="M23.348 26.274c-.86.803-1.912 1.461-3.155 1.965-1.247.505-2.652.761-4.224.761-.879 0-1.776-.091-2.689-.269-.928-.184-1.82-.438-2.678-.764-.858-.326-1.67-.701-2.426-1.135-.756-.429-1.408-.894-1.967-1.392v-4.994c1.884 2.714 4.948 4.677 8.209 5.224 1.551.266 3.26.178 4.59-.744 1.18-.818 1.561-2.307.655-3.486-1.071-1.409-3.335-1.881-4.958-2.289-1.831-.456-3.697-.856-5.351-1.824-3-1.762-4.219-5.395-2.699-8.583 1.361-2.861 4.516-4.404 7.55-4.689 3.641-.338 7.393.9 10.268 3.125v4.164c-2.07-2.213-4.799-3.924-7.834-4.367-1.272-.184-2.781-.266-3.909.453-1.152.723-1.516 2.207-.841 3.39.713 1.251 2.422 1.741 3.72 2.084 1.598.432 3.249.702 4.834 1.194 1.495.461 2.938 1.187 4.038 2.326 1.115 1.164 1.508 2.664 1.508 4.252 0 .951-.226 1.932-.673 2.912-.451.985-1.107 1.883-1.968 2.686zm0 0" fill="#3A434E" sketch:type="MSShapeGroup"/></g></svg>
